X:1509
T:Merry Blacksmith, The
R:reel
N:"collected from F. O'Neill"
B:"O'Neill's Dance Music of Ireland, 1509"
T: an ga.ba mea.dra.c.
Z:transcribed by John B. Walsh, walsh@math.ubc.ca 8/23/96
M:C|
L:1/8
K:D
D2|d3A TBAFA|ABdA TBAFA|ABde fded|Beed egfe|
d2 dA TBAFA|ABdA TBAFA|ABde fdec|dBAF D2||
fg|a3g f2 Tfe|d2 edA TBAFA|ABde fded|Beed egfe|
abag f2 gfe|d3A TBAFA|ABde fdec|dBAF D2||
